icons/tokens/0x6B175474E89094C44Da98b954EedeAC495271d0F/logo.svg

<svg xmlns="http://www.w3.org/2000/svg" width="32" height="32" viewBox="0 0 32 32">
  <g fill="none" fill-rule="evenodd">
    <path fill="#F4B731" d="M32,16 C32,13.90592 31.58336,11.81184 30.78208,9.87712 C29.9808,7.9424 28.79456,6.16704 27.3136,4.6864 C25.83296,3.20544 24.0576,2.0192 22.12288,1.21792 C20.18816,0.41664 18.09408,0 16,0 C13.90592,0 11.81184,0.41664 9.87712,1.21792 C7.9424,2.0192 6.16704,3.20544 4.6864,4.6864 C3.20544,6.16704 2.0192,7.9424 1.21792,9.87712 C0.41664,11.81184 0,13.90592 0,16 C0,18.09408 0.41664,20.18816 1.21792,22.12288 C2.0192,24.0576 3.20544,25.83296 4.6864,27.3136 C6.16704,28.79456 7.9424,29.9808 9.87712,30.78208 C11.81184,31.58336 13.90592,32 16,32 C18.09408,32 20.18816,31.58336 22.12288,30.78208 C24.0576,29.9808 25.83296,28.79456 27.3136,27.3136 C28.79456,25.83296 29.9808,24.0576 30.78208,22.12288 C31.58336,20.18816 32,18.09408 32,16 Z"/>
    <path fill="#FFF" d="M16.08,7.31304554 C16.62496,7.31304554 17.16512,7.39352079 17.69984,7.49142178 C18.80256,7.69292673 19.86144,8.08326337 20.83008,8.6396198 C21.47456,9.00999604 22.06336,9.46591683 22.58976,9.98647129 C22.99328,10.385996 23.34272,10.833996 23.65952,11.3029069 C23.97888,11.7756198 24.23552,12.2869861 24.44064,12.817996 C24.46624,12.9564515 24.6,13.0496 24.73952,13.0261545 L26.5296,13.0261545 C26.75936,13.0261545 26.75936,13.0261545 26.7696,13.2441347 C26.79456,13.7849663 26.79456,14.3261149 26.7696,14.8682139 C26.76224,15.0263129 26.70944,15.0665505 26.5488,15.0665505 L25.16896,15.0665505 L25.16896,15.0665505 C25.02912,15.0665505 24.9888,15.0665505 24.99872,15.2446099 C25.03136,15.8491248 25.05344,16.4530059 24.99872,17.0562535 C24.99872,17.2244911 24.99872,17.2441347 25.18944,17.2441347 L26.76864,17.2441347 L26.76864,17.2441347 C26.8384,17.3331644 26.76864,17.4221941 26.76864,17.5121743 C26.77888,17.6271842 26.77888,17.7431446 26.76864,17.8581545 L26.76864,19.0564119 L26.76864,19.0564119 C26.76864,19.2246495 26.71872,19.2747089 26.56832,19.2747089 L24.6784,19.2747089 L24.6784,19.2747089 C24.54688,19.2493624 24.41856,19.3330059 24.38816,19.4629069 C23.93824,20.6212436 23.21824,21.6598178 22.288,22.4927683 C21.9488,22.7966099 21.59104,23.0808079 21.21792,23.3437782 C20.8176,23.5715802 20.42816,23.809204 20.01792,23.997402 C19.26656,24.3424317 18.4704,24.5819564 17.6576,24.7394218 C16.888,24.8883327 16.10304,24.9383921 15.31744,24.9276198 C13.00448,24.8959366 10.69088,24.8959366 8.37728,24.9276198 L8.37728,24.9174812 L8.38016,24.9155802 L8.38016,19.4407287 C8.38016,19.3114614 8.38016,19.2924515 8.22048,19.2924515 L6.05024,19.2924515 L6.05024,19.2924515 C5.92992,19.2924515 5.88032,19.2924515 5.88032,19.1340356 L5.88032,17.2530059 L5.88032,17.2530059 L8.20032,17.2530059 C8.3296,17.2530059 8.38016,17.2530059 8.38016,17.0844515 L8.38016,15.2230653 C8.38016,15.1042535 8.38016,15.075105 8.22048,15.075105 L6.05024,15.075105 L6.05024,15.075105 C5.92992,15.075105 5.88032,15.075105 5.88032,14.9166891 L5.88032,13.1744317 C5.88032,13.0651248 5.88032,13.0362931 6.04032,13.0362931 L8.19008,13.0362931 L8.19008,13.0362931 C8.33984,13.0362931 8.38016,13.0362931 8.38016,12.848095 L8.38016,7.51138218 L8.38016,7.51138218 C8.38016,7.35296634 8.38016,7.31304554 8.58048,7.31304554 L16.08,7.31304554 L16.08,7.31304554 Z M21.67936,19.3019564 L10.58976,19.3019564 L10.58976,19.3019564 C10.44032,19.3019564 10.39008,19.3019564 10.39008,19.4996594 L10.39008,22.9360158 L10.39008,22.9360158 C10.39008,23.0941149 10.39008,23.1343525 10.58976,23.1343525 L15.70976,23.1343525 L15.70976,23.1343525 C15.95456,23.1524119 16.19936,23.135303 16.43904,23.0849267 C17.1824,23.0323327 17.91328,22.8726495 18.61024,22.6093624 C18.8608,22.5146297 19.10848,22.4091248 19.33952,22.2728871 L19.40928,22.2728871 C20.6096,21.6550653 21.58464,20.6836594 22.19936,19.4920554 C22.20288,19.4844515 22.26944,19.3421941 22.19072,19.3029069 L22.19072,19.3019564 C22.0208,19.2832634 21.84928,19.2832634 21.67936,19.3019564 Z M22.67968,15.0643327 L10.57952,15.0643327 L10.57952,15.0643327 C10.43008,15.0643327 10.39008,15.1134416 10.39008,15.2525307 L10.39008,17.0147485 L10.39008,17.0147485 C10.39008,17.2422337 10.39008,17.2422337 10.62944,17.2422337 L22.66944,17.2422337 L22.66944,17.2422337 C22.79936,17.2422337 22.86048,17.2422337 22.86976,17.073996 C22.904,16.4602931 22.91936,15.8453228 22.86976,15.2322535 C22.86976,15.1134416 22.81024,15.0643327 22.67968,15.0643327 Z M15.92864,9.19280792 C14.13888,9.20801584 12.34912,9.20801584 10.55904,9.19280792 C10.40896,9.19154059 10.38912,9.25205545 10.38912,9.38100594 L10.38912,12.8956198 L10.38912,12.8956198 C10.38912,13.043897 10.38912,13.0838178 10.5792,13.0838178 L22.11872,13.0838178 L22.11872,13.0838178 C22.12352,13.0828673 22.21856,13.0641743 22.23904,13.0046099 L22.19072,13.0046099 C22.208,12.9596198 22.208,12.9108277 22.19072,12.8664713 C22.08928,12.6475406 21.96896,12.4387485 21.82944,12.2426297 C21.6192,11.9074218 21.3712,11.5988277 21.08928,11.3216 C20.95616,11.153996 20.80192,11.0038178 20.62912,10.8761347 C19.76352,10.1467881 18.7344,9.63066931 17.6288,9.37118416 C17.072,9.2406495 16.5008,9.18805545 15.92864,9.19280792 Z"/>
  </g>
</svg>

<svg xmlns="http://www.w3.org/2000/svg" width="32" height="32"><g fill="none" fill-rule="evenodd"><path fill="#F4B731" d="M32 16c0-2.094-.417-4.188-1.218-6.123a16.047 16.047 0 00-3.468-5.19 16.047 16.047 0 00-5.191-3.47A16.055 16.055 0 0016 0c-2.094 0-4.188.417-6.123 1.218a16.047 16.047 0 00-5.19 3.468 16.047 16.047 0 00-3.47 5.191A16.055 16.055 0 000 16c0 2.094.417 4.188 1.218 6.123a16.047 16.047 0 003.468 5.19 16.047 16.047 0 005.191 3.47A16.055 16.055 0 0016 32c2.094 0 4.188-.417 6.123-1.218a16.047 16.047 0 005.19-3.468 16.047 16.047 0 003.47-5.191A16.055 16.055 0 0032 16z"/><path fill="#FFF" d="M16.08 7.313c.545 0 1.085.08 1.62.178a9.84 9.84 0 013.13 1.149c.645.37 1.233.826 1.76 1.346.403.4.753.848 1.07 1.317.319.473.576.984.78 1.515a.26.26 0 00.3.208h1.79c.23 0 .23 0 .24.218.025.541.025 1.082 0 1.624-.008.158-.06.199-.221.199h-1.38c-.14 0-.18 0-.17.178.032.604.054 1.208 0 1.811 0 .168 0 .188.19.188h1.58c.07.09 0 .178 0 .268.01.115.01.231 0 .346v1.198c0 .169-.05.219-.2.219h-1.89a.25.25 0 00-.29.188 7.918 7.918 0 01-2.101 3.03c-.34.304-.697.588-1.07.85-.4.229-.79.466-1.2.654-.751.345-1.548.585-2.36.742a11.48 11.48 0 01-2.34.189 253.384 253.384 0 00-6.94 0v-.01l.002-.002V19.44c0-.13 0-.149-.16-.149H6.05c-.12 0-.17 0-.17-.158v-1.881H8.2c.13 0 .18 0 .18-.169v-1.86c0-.12 0-.149-.16-.149H6.05c-.12 0-.17 0-.17-.158v-1.743c0-.109 0-.138.16-.138h2.15c.15 0 .19 0 .19-.188V7.511c0-.158 0-.198.2-.198h7.5zm5.6 11.989H10.59c-.15 0-.2 0-.2.198v3.436c0 .158 0 .198.2.198h5.12c.245.018.49.001.729-.05a7.673 7.673 0 002.171-.475c.25-.094.498-.2.73-.336h.07a6.463 6.463 0 002.79-2.78c.003-.009.07-.15-.01-.19v-.001a2.338 2.338 0 00-.51 0zm1-4.238h-12.1c-.15 0-.19.05-.19.189v1.762c0 .227 0 .227.24.227h12.04c.13 0 .19 0 .2-.168.034-.614.05-1.229 0-1.842 0-.119-.06-.168-.19-.168zm-6.751-5.871c-1.79.015-3.58.015-5.37 0-.15-.001-.17.06-.17.188v3.515c0 .148 0 .188.19.188h11.54c.005-.001.1-.02.12-.08h-.048a.19.19 0 000-.138 3.911 3.911 0 00-.362-.623 5.065 5.065 0 00-.74-.921 2.44 2.44 0 00-.46-.446 7.217 7.217 0 00-3-1.505 7.18 7.18 0 00-1.7-.178z"/></g></svg>
